X:1
T:Trio in G
T:Trio ion B
T:Trio 
T:Johann Ludwig Krebs (1713-1780)
T: (Krebs-WV 449, originally in G for Organ) arr. for Flute, Violin and Cello 
T:Arrangement by Felix Scharpf
T:twoflutes 2019 / Felix Scharpf / https://commons.wikimedia.org/wiki/File:Claesz.,_Pieter_-_Still_Life_with_Musical_Instruments_-_1623.jpg
T:twoflutes 2019 / Felix Scharpf / https://commons.wikimedia.org/wiki/File:Claesz.,_Pieter_-_Still_Life_with_Musical_Instruments_-_1623.jpg
T:twoflutes 2019 / Felix Scharpf / https://commons.wikimedia.org/wiki/File:Claesz.,_Pieter_-_Still_Life_with_Musical_Instruments_-_1623.jpg
T:twoflutes 2019 / Felix Scharpf / https://commons.wikimedia.org/wiki/File:Claesz.,_Pieter_-_Still_Life_with_Musical_Instruments_-_1623.jpg
T:twoflutes 2019 / Felix Scharpf / https://commons.wikimedia.org/wiki/File:Claesz.,_Pieter_-_Still_Life_with_Musical_Instruments_-_1623.jpg
T:twoflutes 2019 / Felix Scharpf / https://commons.wikimedia.org/wiki/File:Claesz.,_Pieter_-_Still_Life_with_Musical_Instruments_-_1623.jpg
T:twoflutes 2019 / Felix Scharpf / https://commons.wikimedia.org/wiki/File:Claesz.,_Pieter_-_Still_Life_with_Musical_Instruments_-_1623.jpg
T:twoflutes 2019 / Felix Scharpf / https://commons.wikimedia.org/wiki/File:Claesz.,_Pieter_-_Still_Life_with_Musical_Instruments_-_1623.jpg
T:twoflutes 2019 / Felix Scharpf / https://commons.wikimedia.org/wiki/File:Claesz.,_Pieter_-_Still_Life_with_Musical_Instruments_-_1623.jpg
T:twoflutes 2019 / Felix Scharpf / https://commons.wikimedia.org/wiki/File:Claesz.,_Pieter_-_Still_Life_with_Musical_Instruments_-_1623.jpg
C:Johann Ludwig Krebs
Z:twoflutes 2019 / Felix Scharpf / https://commons.wikimedia.org/wiki/File:Claesz.,_Pieter_-_Still_Life_with_Musical_Instruments_-_1623.jpg
%%score [ 1 2 3 ]
L:1/8
Q:1/4=96
M:4/4
K:Bb
V:1 treble nm="Flute" snm="Fl."
V:2 treble nm="Violin" snm="Vl."
V:3 bass nm="Cello" snm="Vc."
V:1
"^Allegro" z4 z!mf! g (f/g/)(e/f/) | .dd' (c'/d'/)(b/c'/) .a(A/c/) (B/d/)(c/e/) | %2
 (d/f/)(A/c/) (B/d/)(c/e/) (d/f/)(B/d/) (c/e/)(d/f/) | %3
 (e/g/)(c/=e/) (d/f/)(e/g/) (f/a/b/c'/) (f/g/a/b/) | d2 z2 z/ (e/f/g/ _a/b/c'/d'/) | %5
!>(! e'4- e'!>)!(abc') | .d'(def) (g/a/)(f/g/) (e/f/)(d/e/) | c2 z2 z4 | %8
 z g (f/g/)(e/f/) .dd' (c'/d'/)b/(c'/ | a/)f/d'- d'/e/c'- c'/d/b- b/c/a | %10
 (bf) (g/a/)(Pa/4g/4a/) .bd (e/f/)(Pf/4e/4f/) | .gb (c'/d'/)(Pd'/4c'/4d'/)!>(! e'4-!>)! | %12
 e'fbc' .d'/(b/a/g/) (c'/b/)(c'/a/) | (b/g/)e'/d'/- d'/c'/(a/g/) (a/b/)c'- c'/=e/.^f | %14
 g2 z2 z b (a/b/)(g/a/) | .^f d2 ^c .df (g/b/)(a/c'/) | (b/d'/)(^f/a/) (g/b/)(a/c'/) (b>g) (a>f) | %17
 (g>=e).^f.g (f/d/_e/=e/ =f/^f/g/a/ | b) z z2 z/ (c/^c/d/ e/=e/f/g/ | %19
 a) z z2 z/ (b/a/b/) .d'/(f/e/d/) | z/ (e/d/e/) .c'/(e/d/c/) z/ (d/c/d/) .b/(d/c/B/) | %21
 z/ (c/B/c/) .b/(c/B/A/) z/ B/A/B/ .g/(B/A/G/) | (^F/d/)(E/=E/ F/G/A/B/) (c/e/)(F/G/ A/B/c/d/) | %23
 .e d2 c (B/c/)(A/B/) (G/A/)(F/G/) | (=E/c/)(C/D/ E/F/G/A/ B/^c/)(E/F/ G/A/B/=c/) | %25
 ._d c2!f! .B .A.g.f.e | .d.f.e.d .e.f.g.f | .e.d.c.B .A z z2 | %28
 z!mf! d (c/d/)(B/c/) (A/d/=e/^f/) g2- | g/(=e/^f/g/) a2- a/d/b- b/c/a- | a/B/g- g/A/^f g2 z2 | %31
 z c (d/f/)(=e/g/) (f3 _e) | .d(b- b/a/g/f/) .=ea- a/g/f/e/ | .dgcf- f/(=e/d/e/) (Te>f) | %34
 f2 z2 z cDB | (APG) z f (=efga) | (b/c'/)(a/b/) (g/a/)(f/g/) (=e/d/)(e/c/) f2- | %37
 f/=e/(f/d/) e2- e/(d/e/c/) d2- | d/(^c/d/=B/) (c>d) d2 z2 | z f (=e/f/)(d/e/) .^c A2 _A | %40
 (=A^c) (d/f/)(e/g/) (f/a/)(c/=e/) (d/f/)(e/g/) | (f>d) (=e>^c) (d>=B) (cd) | %42
 ^c/(A/B/=B/ =c/^c/d/=e/ f) z z2 | z/ (G/_A/=A/ B/=B/c/d/ =e) z z2 | %44
 z/ (f/=e/f/) .a/(c/B/A/) z/ (B/A/B/) .g/(B/A/G/) | %45
 z/ (A/G/A/) .f/(A/G/F/) z/ (G/F/G/) .=e/(g/f/e/) | %46
 z/ (f/=e/f/) .d'/(f/e/d/) (^c/a/)(A/=B/ c/d/e/f/) | (g/b/)(^c/d/ =e/f/g/a/) .b a2 g | %48
 (f/g/)(=e/f/) (d/e/)(c/d/) (=B/g/)(G/A/ B/c/d/e/) | (f/_a/)(=B/c/ d/=e/f/g/) .=a g2 f | %50
 (=e/f/)(d/e/) (c/d/)(B/c/) (A/f/)(F/G/ A/B/c/d/) | (e/_g/)(A/B/ c/d/e/f/) .=g f2 (e | %52
 d)!f!.f.b.a .g z z2 | z .A.f.e .d!mf!(fb_a) | %54
 (g/b/)(_a/b/) .e'/(b/a/)b/ .g/(b/a/b/) .e'/(b/a/b/) | %55
 (g/_a/)(f/g/) (e/f/)(d/e/) c!>(!.g.=a.g!>)! |!mp! .f.g.a.g .f.e.d.c | %57
"_cresc." .B/(f/e/f/) .b/(f/e/f/) .d/(f/e/f/) .b/(f/e/f/) | %58
 (d/e/)(c/d/) (B/c/)(A/B/) .G/(d/c/d/) .g/(d/c/d/) | %59
 .=B/(d/c/d/) .g/(d/c/d/) .B/(d/c/d/) .g/(d/c/d/) | %60
 .=B/(d/c/d/) .f/(d/c/d/) .G/(c/B/c/) .e/(c/B/c/) | %61
 .G/(c/=B/c/) .e/(c/B/c/) .^F/(c/B/c/) .e/(c/B/c/) | .^F/(c/=B/c/) .e/(c/B/c/)!mf! .B(_agf) | %63
 (e=efe) (f/g/)(_e/f/) (d/e/)(c/d/) | .B e2 d2 c2 .=B | %65
 (c/B/A/).d/ (B/A/G/).c/ (A/G/F/).B/ (G/F/=E/).A/ | .F z z2 z g (a/c'/)(=b/d'/) | %67
 (c'3 b) .af (g/b/)(a/c'/) | b2 z2 z g (f/g/)(e/f/) | .dd' (c'/d'/)(b/c'/) .a(A/c/) (B/d/)(c/e/) | %70
 (d/f/)(A/c/) (B/d/)(c/e/) (d/f/)(B/d/) (c/e/)(d/f/) | %71
 (e/g/)(c/=e/) (d/f/)(e/g/) !wedge!f/(a/b/c'/)!>(! !wedge!_e/(a/b/c'/) | %72
 !wedge!d/(g/a/b/) !wedge!c/(f/g/a/) !wedge!B/(e/f/g/) !wedge!A/(d/e/f/) | %73
 !wedge!G/(c/d/e/) !wedge!F/(B/c/d/) !wedge!E/(A/B/c/) !wedge!_D/(G/A/B/) | %74
 !wedge!C/(B/A/G/) TA2 .Be (d/e/)(c/d/)!>)! |!mp! .B!mf!!<(!g (f/g/)(e/f/) .dc' (b/c'/)(_a/b/) | %76
[Q:1/4=80]"_rit." (g/_a/)[Q:1/4=70](f/a/)[Q:1/4=60] (g/b/)(=a/[Q:1/4=50]c'/)!f! !fermata!b4!<)! |] %77
V:2
 z8 | z!mf! B (A/B/)(G/A/)!mp! F4- | F4- F!mf!(D/F/) (E/G/)(F/A/) | %3
 (G/B/)(=E/G/) (F/A/)(G/B/) A2 z2 | .B/(d/e/f/) (B/c/d/e/) G2 z2 | z/ (c/d/e/ f/g/a/b/) .c'(fga) | %6
 .b(Bcd) (e/f/)(d/e/) (c/d/)(B/c/) | A2 z2 z d (c/d/)(B/c/) | .A!p!(aba) .b!mf! f2 =e | %9
 f>g e>f d>e c>e | (e/c/)d (=e/^f/)(Pf/4e/4f/) .gB (c/d/)(Pd/4c/4d/) | %11
 .eg (a/=b/)(Pb/4a/4b/) .c'g (c'/d'/)(_b/c'/) | (a/b/)(g/a/) (f/g/)(e/f/) .d g2 ^f | %13
 (g^fgB) e>e (d/c/)(d/A/) | .BG (F/G/)(E/F/) .Dd (c/d/)(B/c/) | .AB (A/B/)(G/A/) .^FcBF | %16
 (G/B/)(A/c/) (B/d/)(^F/A/) (G/d/)e- e/c/d- | d/B/c- c/(A/B/G/) A z z2 | %18
 z/ (G/_A/=A/ B/=B/c/d/ e) z z2 | z/ (F/^F/G/ _A/=A/B/c/ d2) b2- | b2 a4 g2- | g2 ^f2 g2 =e2 | %22
 d2 z2 z (E/=E/ ^F/G/A/B/) | .c B2 A (GD=EF | G2) z2 z/ z/ (C/D/ =E/F/G/A/) | .B A2 .G .F z z2 | %26
 z .c.B._A (G/B/)(A/c/) e/(B/A/B/) | (G/_A/)(F/G/) (E/F/)(D/E/) .CG (F/G/)(E/F/) | %28
 .D(BAG ^F) z z/ (=B/c/d/) | =e2- e/(^c/d/e/) (^f>g) (e>f) | (d>e) (c>d) (B>G) (A/c/)(=B/d/) | %31
 c3 B AF (G/B/)(A/c/) | .B(d- d/c/B/A/) .Gc- c/B/A/G/ | .FB(Ad) G2- G/A/B | %34
 AF (=E/F/)(D/E/) CAB,G | (FP=E) z c (B/c/)(A/B/) (G/A/)(F/G/) | (=EFGA B2) (A/G/)(A/F/) | %37
 G2- G/(F/G/=E/) F2- F/(E/F/D/) | =E2- E/(B/A/G/) .FD (C/D/)(B,/C/) | %39
 .A,A (G/A/)(F/G/) .=EF (D/F/)(D/E/) | (^CG)FC (D/F/)(=E/G/) (F/A/)(C/E/) | %41
 D/A/B- B/G/A- A/F/G- G/(=E/F/D/) | =E2 z2 z/ (D/_E/=E/ F/^F/G/A/ | %43
 B) z z2 z/ (C/_D/=D/ E/=E/F/G/ | A2) f4 =e2- | e2 d4 ^c2 | (d'2 =b2 a2) z2 | %47
 z (A/=B/ ^c/d/=e/f/) .g f2 e | (d/=e/)(c/d/) (=B/c/)(A/B/) G2 z2 | z (G/A/ =B/c/d/=e/) .f e2 d | %50
 (c/d/)(B/c/) (A/B/)(G/A/) F2 z2 | z (F/G/ A/B/c/d/) .e d2 (c | B) z z2 z!mf! .G.c.B | %53
 .A.c.B.A .B(ded) | .e.f.g.f .e.f.g.f | .e.d.c.B (A/c/)!>(!(B/c/) .f/(c/B/c/)!>)! | %56
!mp! (A/c/)(B/c/) .f/(c/B/c/) (A/B/)(G/A/) (F/G/)(E/F/) |!mf!"_cresc." .D.c.d.c .B.c.d.c | %58
 .B.f.d.f .=B.A.B.^F | .G.A.=B.A .G.g.A.g | .d.g.=B.g .E.g.G.g | .e.g.c.g .A.e.c.e | %62
 .A.e.^F.e!mf! .d(=BcB) | (c/d/)(B/c/) (A/B/)(G/A/) .F B2 A | %64
 (B/_A/G/).c/ (A/G/F/).B/ (G/F/E/).A/ (F/E/D/).G/ | .=E F2 E2 D2 .^C | .Dd (=e/g/)(^f/a/) (g3 =f) | %67
 =ec (d/f/)(e/g/) (f3 _e) | d2 z2 z4 | z B (A/B/)(G/A/) F4- | F4- F(D/F/) (E/G/)(F/_A/) | %71
 (G/B/)(=E/G/) (F/A/)(G/B/) .A.a!>(!.c.a | .B.g.A.f .G.e.F.d | .E.c.D.B .C.A.B,.=E | %74
 F2- F/E/F/C/ .DG (F/G/)(E/F/)!>)! |!mp! .D!mf!!<(!B (_A/B/)(G/A/) .Fe (d/e/)(c/d/) | %76
 .e.d.e.c!f! !fermata!d4!<)! |] %77
V:3
 z!mf! B, (A,/B,/)(G,/A,/) .F,E (D/E/)(C/D/) | (B,2 C2) F,(EDA,) | B,(E,D,)F, B,,(_A,G,)B, | %3
 E,(B,A,)C (F,E,D,C,) | (B,,_A,,G,,F,, E,,) E2 D | (CB,A,G,) .F,/(F/E/F/) (D/E/)(C/D/) | %6
 (B,/C/)(_A,/B,/) (G,/A,/)(F,/G,/) E,4 | .F,F (E/F/)(D/E/) (CB,A,G, | %8
 F,E,D,C,) .B,,B, (A,/B,/)(G,/A,/) | .F,.B,.G,.A, .B,.G,.E,.F, | .B,, B,2 A, .G,, G,2 F, | %11
 .E,, E,2 D, .C,/(C/B,/C/) (A,/B,/)(G,/A,/) | (F,/G,/)(E,/F,/) (D,/E,/)(C,/D,/) B,,2 A,,2 | %13
 (G,,A,B,E) (CA,DD,) | G,2 z2 z4 | z G, (^F,/G,/)(=E,/F,/)!mp! D,4- | D,4!mf! (G,C,)(F,B,,) | %17
 (E,A,,)(D,G,,)!f! .D,.C.B,.A, | .G,.F,.E,.D, .C,.B,,.A,,.G,, | .F,,.E.D.C !wedge!B,2 !wedge!B,,2 | %20
 !wedge!C,2 !wedge!F,2 !wedge!B,,2 !wedge!E,2 | !wedge!A,,2 !wedge!D,2 !wedge!G,,2 !wedge!^C,2 | %22
 !wedge!D,2 z2 !wedge!D,2 z2 | z (D,/D/) (=E,/D/)(^F,/D/) (G,/A,/)(=F,/G,/) (E,/F,/)(D,/E,/) | %24
 !wedge!C,2 z2 !wedge!C,2 z2 | z (C,/C/) (D,/C/)(=E,/C/) (F,/G,/)(_E,/F,/) (D,/E,/)(C,/D,/) | %26
 (B,,/C,/)(A,,/B,,/) (G,,/A,,/)(F,,/G,,/) E,,2 z D, | E,2 z E,, F,,E,D,F, | B,,G,^F,G, D,C=B,G, | %29
 C=B,^CA, D2 D,2 | D2 D,2 G,E,F,G, | .C,(A,B,C) .F,(D,E,F,) | .B,, z .B, z .C, z .C z | %33
 D=E(F=B,) C2 C,2 | F,2 z2 z4 | z C (B,/C/)(A,/B,/) (G,/A,/)(F,/G,/) (=E,/F,/)(D,/E,/) | C,8 | %37
 (C2 ^C2 D2 B,2 | ^G,2 A,2 D,2) z2 | z4 z D, (^C,/D,/)(=B,,/C,/) |!p! A,,8 | %41
!mf!!<(! .D,.G,.C,.F, .B,,.=E,.A,,.D, |!f! .A,,!<)!.G,.F,.=E, .D,.C,.B,,.A,, | %43
 .G,,.F.=E.D .C.B,.A,.G, | !wedge!F,2 !wedge!F,,2 !wedge!G,,2 !wedge!C,2 | %45
 !wedge!F,2 !wedge!B,,2 !wedge!=E,2 !wedge!A,,2 | !wedge!D,2 !wedge!^G,,2 !wedge!A,,2 z2 | %47
 !wedge!A,,2 z2 z (A,,/A,/) (=B,,/A,/)(^C,/A,/) | (D,=E,F,^F, G,2) z2 | %49
 G,,2 z2 z (G,,/G,/) (A,,/G,/)(=B,,/G,/) | C,2 z C, F,,2 z2 | %51
 F,,2 z2 z (F,,/F,/) (G,,/F,/)(A,,/F,/) | %52
 B,,/(B,/A,/B,/) (G,/A,/)(F,/G,/) =E,/(C/B,/C/) (A,/B,/)(G,/A,/) | %53
 (F,/G,/)(E,/F,/) (D,/E,/)(C,/D,/) (B,,/C,/)(_A,,/B,,/) (G,,/A,,/)(F,,/G,,/) | %54
 E,,2 z B,, E,2 z B,, | E,2 z E,, F,,2 z C, |!mp! F,2 z C, F,,2 z F, | %57
"_cresc." B,,2 z F, B,2 z F, | B,,2 z2 G,2 z D, | G,,2 z D, G,2 z2 | G,,2 z2 G,2 z2 | %61
 G,,2 z2 G,2 z2 | G,,2 z2!mf! .G,,F, (E,/F,/)(D,/E,/) | .C,.G,.C.C, .D,.G,.F,.F,, | %64
 .G,.C.F,.B, .E,._A,.D,.G, | .C,.F,.G,.C .F,.B,.=E,.A, | .D,.B,,.C,.D, .E,.=E,.F,.G, | %67
 .C,.A,,.B,,.C, .F,.D,.E,.F, | .B,,B, (A,/B,/)(G,/A,/) .F,E (D/E/)(C/D/) | (B,2 C2) .F,.E.D.A, | %70
!f! .B,.E,.D,.F, .B,,._A,.G,.B, | .E,.B,.A,.C!p! F,4- | F,8- | F,8- | F,4!mp! B,4- |!<(! B,8- | %76
!f! !fermata!B,8!<)! |] %77

